assets/images/ico_step2_new.svg

<svg width="39" height="69" viewBox="0 0 39 69" fill="none" xmlns="http://www.w3.org/2000/svg">
<path d="M33.492 0H5.32055C3.90989 0.00142707 2.55742 0.562441 1.55993 1.55993C0.562441 2.55742 0.00142707 3.90989 0 5.32055V63.6795C0.00142707 65.0901 0.562441 66.4426 1.55993 67.4401C2.55742 68.4376 3.90989 68.9986 5.32055 69H33.492C34.9026 68.9986 36.2551 68.4376 37.2526 67.4401C38.2501 66.4426 38.8111 65.0901 38.8125 63.6795V5.32055C38.8111 3.90989 38.2501 2.55742 37.2526 1.55993C36.2551 0.562441 34.9026 0.00142707 33.492 0V0ZM10.7812 2.15625H28.0312V3.77344C28.0357 3.91623 28.0109 4.05844 27.9583 4.19127C27.9057 4.3241 27.8265 4.44475 27.7255 4.54578C27.6244 4.6468 27.5038 4.72605 27.371 4.77864C27.2381 4.83123 27.0959 4.85605 26.9531 4.85156H11.8594C11.7166 4.85605 11.5744 4.83123 11.4415 4.77864C11.3087 4.72605 11.1881 4.6468 11.087 4.54578C10.986 4.44475 10.9068 4.3241 10.8542 4.19127C10.8016 4.05844 10.7768 3.91623 10.7812 3.77344V2.15625ZM36.6562 63.6795C36.6534 64.5178 36.3191 65.321 35.7263 65.9138C35.1335 66.5066 34.3303 66.8409 33.492 66.8438H5.32055C4.4822 66.8409 3.679 66.5066 3.08619 65.9138C2.49339 65.321 2.15909 64.5178 2.15625 63.6795V5.32055C2.15909 4.4822 2.49339 3.679 3.08619 3.08619C3.679 2.49338 4.4822 2.15909 5.32055 2.15625H8.625V3.77344C8.62068 4.19938 8.70138 4.62191 8.86239 5.01628C9.0234 5.41064 9.26148 5.76892 9.56269 6.07012C9.86389 6.37133 10.2222 6.60941 10.6165 6.77042C11.0109 6.93143 11.4334 7.01214 11.8594 7.00781H26.9531C27.3791 7.01214 27.8016 6.93143 28.196 6.77042C28.5903 6.60941 28.9486 6.37133 29.2498 6.07012C29.551 5.76892 29.7891 5.41064 29.9501 5.01628C30.1111 4.62191 30.1918 4.19938 30.1875 3.77344V2.15625H33.492C34.3303 2.15909 35.1335 2.49338 35.7263 3.08619C36.3191 3.679 36.6534 4.4822 36.6562 5.32055V63.6795Z" fill="#2EBBE1"/>
<path d="M31.2656 28.0312H26.9208L27.4598 23.309C27.4768 23.1674 27.4658 23.0239 27.4273 22.8866C27.3888 22.7492 27.3236 22.6209 27.2355 22.5087C27.1474 22.3966 27.0381 22.3029 26.9138 22.2331C26.7895 22.1632 26.6527 22.1185 26.5111 22.1015C26.3695 22.0845 26.226 22.0956 26.0887 22.134C25.9514 22.1725 25.823 22.2377 25.7109 22.3258C25.5987 22.4139 25.505 22.5232 25.4352 22.6475C25.3653 22.7718 25.3206 22.9087 25.3036 23.0502L24.7484 28.0312H16.1234L16.7109 23.309C16.7279 23.1674 16.7169 23.0239 16.6784 22.8866C16.6399 22.7492 16.5747 22.6209 16.4866 22.5087C16.3985 22.3966 16.2892 22.3029 16.1649 22.2331C16.0406 22.1632 15.9038 22.1185 15.7622 22.1015C15.6206 22.0845 15.4771 22.0956 15.3398 22.134C15.2025 22.1725 15.0741 22.2377 14.9619 22.3258C14.8498 22.4139 14.7561 22.5232 14.6863 22.6475C14.6164 22.7718 14.5717 22.9087 14.5547 23.0502L13.9671 28.0312H8.625C8.33906 28.0312 8.06484 28.1448 7.86265 28.3469C7.66046 28.5491 7.54688 28.8234 7.54688 29.1093C7.54688 29.3952 7.66046 29.6695 7.86265 29.8716C8.06484 30.0738 8.33906 30.1874 8.625 30.1874H13.7137L12.6841 38.8124H7.54688C7.26094 38.8124 6.98671 38.926 6.78452 39.1282C6.58234 39.3304 6.46875 39.6046 6.46875 39.8905C6.46875 40.1765 6.58234 40.4507 6.78452 40.6529C6.98671 40.8551 7.26094 40.9687 7.54688 40.9687H12.4308L11.8594 45.6909C11.8413 45.8326 11.8516 45.9765 11.8897 46.1142C11.9278 46.252 11.9928 46.3807 12.0811 46.4931C12.1694 46.6055 12.2791 46.6991 12.4039 46.7687C12.5287 46.8383 12.6661 46.8824 12.8081 46.8984H12.9375C13.2024 46.9003 13.4587 46.8046 13.6575 46.6296C13.8564 46.4546 13.9838 46.2126 14.0156 45.9496L14.6032 40.9687H23.2282L22.6891 45.6909C22.6519 45.9698 22.7252 46.2523 22.8934 46.4779C23.0616 46.7035 23.3114 46.8544 23.5894 46.8984H23.7188C23.9836 46.9003 24.2399 46.8046 24.4388 46.6296C24.6376 46.4546 24.7651 46.2126 24.7969 45.9496L25.3845 40.9687H30.1875C30.4734 40.9687 30.7477 40.8551 30.9499 40.6529C31.152 40.4507 31.2656 40.1765 31.2656 39.8905C31.2656 39.6046 31.152 39.3304 30.9499 39.1282C30.7477 38.926 30.4734 38.8124 30.1875 38.8124H25.6378L26.6674 30.1874H31.2656C31.5516 30.1874 31.8258 30.0738 32.028 29.8716C32.2302 29.6695 32.3438 29.3952 32.3438 29.1093C32.3438 28.8234 32.2302 28.5491 32.028 28.3469C31.8258 28.1448 31.5516 28.0312 31.2656 28.0312ZM23.4654 38.8124H14.8404L15.87 30.1874H24.495L23.4654 38.8124Z" fill="#2EBBE1"/>
</svg>

<svg width="39" height="69" fill="none" xmlns="http://www.w3.org/2000/svg"><path d="M33.492 0H5.321A5.326 5.326 0 000 5.32v58.36A5.326 5.326 0 005.32 69h28.172a5.326 5.326 0 005.32-5.32V5.32A5.326 5.326 0 0033.492 0zm-22.71 2.156h17.25v1.617a1.045 1.045 0 01-1.079 1.079H11.86a1.046 1.046 0 01-1.078-1.079V2.156zM36.655 63.68a3.175 3.175 0 01-3.164 3.165H5.321a3.175 3.175 0 01-3.165-3.164V5.32a3.175 3.175 0 013.165-3.164h3.304v1.617a3.202 3.202 0 003.234 3.235h15.094a3.202 3.202 0 003.235-3.235V2.156h3.304a3.175 3.175 0 013.164 3.165v58.358z" fill="#2EBBE1"/><path d="M31.266 28.031H26.92l.539-4.722a1.085 1.085 0 10-2.156-.259l-.556 4.981h-8.625l.588-4.722a1.085 1.085 0 10-2.156-.259l-.588 4.981H8.625a1.078 1.078 0 000 2.156h5.089l-1.03 8.625H7.547a1.078 1.078 0 000 2.157h4.884l-.572 4.722a1.076 1.076 0 00.95 1.207h.129a1.078 1.078 0 001.078-.948l.587-4.981h8.625l-.539 4.722a1.078 1.078 0 00.9 1.207h.13a1.078 1.078 0 001.078-.948l.587-4.981h4.803a1.078 1.078 0 000-2.157h-4.55l1.03-8.625h4.599a1.078 1.078 0 100-2.156zm-7.8 10.781H14.84l1.03-8.625h8.625l-1.03 8.625z" fill="#2EBBE1"/></svg>
